X: 38284
T: St. Kilda Wedding
R: reel
M: 4/4
K: Amajor
A3B Afec|B/B/B cA F2EF|A3B Ace=g|1 f/f/f fg fefa:|2 f/f/f fg fefg|
agab ae e/e/e|fgag f/f/f ed|cefg agfa|ecac B/B/B AB|
eaag ae e/e/e|fgag f/f/f ed|cefg agfa|ecac B/B/B AB||

